X: 21947
T: Kitty Hayes'
R: hornpipe
M: 4/4
K: Eminor
BEED E2DE|GABG A2Bd|BEED E2DE|GABG A2dc|
BEED E2DE|GABG A2GA|B2BA GEDE|G2FA GBAc||
BEED E2DE|GABG A2Bd|BEED E2DE|GABG A2dc|
BEED E2DE|GABG A2GA|B2dB AGED|G2FA Geed||
(3BAG Bd e2eg|fedf edBA|BA (3Bcd e2eg|fedf e2 e/e/d|
edBe d2ge|dBAG BAGE|B2BA GEDE|G2FA Geed||
BABd e2eg|fedf edBA|BA (3Bcd eBeg|aged eg (3fed|
edBe dege|dBAG BAGE|ABBG AGED|G2FA GABc||

